icons/outline/select-all.svg

<!--
tags: [highlight, choose, pick, elect, mark, set, check, complete, fill, total]
version: "2.11"
unicode: "f9f7"
-->
<svg
  xmlns="http://www.w3.org/2000/svg"
  width="24"
  height="24"
  viewBox="0 0 24 24"
  fill="none"
  stroke="currentColor"
  stroke-width="2"
  stroke-linecap="round"
  stroke-linejoin="round"
>
  <path d="M8 8m0 1a1 1 0 0 1 1 -1h6a1 1 0 0 1 1 1v6a1 1 0 0 1 -1 1h-6a1 1 0 0 1 -1 -1zm4 11v.01m4 -.01v.01m-8 -.01v.01m-4 -.01v.01m0 -4.01v.01m0 -4.01v.01m0 -4.01v.01m0 -4.01v.01m4 -.01v.01m4 -.01v.01m4 -.01v.01m4 -.01v.01m0 3.99v.01m0 3.99v.01m0 3.99v.01m0 3.99v.01" />
</svg>

<!--
tags: [highlight, choose, pick, elect, mark, set, check, complete, fill, total]
version: "2.11"
unicode: "f9f7"
-->
<svg
  xmlns="http://www.w3.org/2000/svg"
  width="24"
  height="24"
  viewBox="0 0 24 24"
  fill="none"
  stroke="currentColor"
  stroke-width="2"
  stroke-linecap="round"
  stroke-linejoin="round"
>
    <path d="M8 8m0 1a1 1 0 0 1 1 -1h6a1 1 0 0 1 1 1v6a1 1 0 0 1 -1 1h-6a1 1 0 0 1 -1 -1zM12 20v.01M16 20v.01M8 20v.01M4 20v.01M4 16v.01M4 12v.01M4 8v.01M4 4v.01M8 4v.01M12 4v.01M16 4v.01M20 4v.01M20 8v.01M20 12v.01M20 16v.01M20 20v.01" />
</svg>
